build/img/advantage_3_tablet.svg

<svg width="89" height="63" viewBox="0 0 89 63" fill="none" xmlns="http://www.w3.org/2000/svg">
<path d="M9.82715 17.7295H13.707C15.1797 17.7295 16.2559 17.2197 16.9355 16.2002C17.6341 15.1618 17.9834 13.7835 17.9834 12.0654C17.9834 10.4229 17.6247 9.14844 16.9072 8.24219C16.2087 7.31706 15.2646 6.85449 14.0752 6.85449C12.9613 6.85449 12.0456 7.28874 11.3281 8.15723C10.6296 9.02572 10.2803 10.1208 10.2803 11.4424H2.26562C2.26562 9.29004 2.75651 7.36426 3.73828 5.66504C4.73893 3.94694 6.12663 2.60645 7.90137 1.64355C9.69499 0.680664 11.6774 0.199219 13.8486 0.199219C17.6436 0.199219 20.6172 1.24707 22.7695 3.34277C24.9219 5.43848 25.998 8.30827 25.998 11.9521C25.998 13.8213 25.5072 15.5583 24.5254 17.1631C23.5625 18.749 22.2881 19.9668 20.7021 20.8164C22.6468 21.6471 24.0911 22.8932 25.0352 24.5547C25.998 26.2161 26.4795 28.1797 26.4795 30.4453C26.4795 34.1081 25.3089 37.0439 22.9678 39.2529C20.6455 41.4619 17.5869 42.5664 13.792 42.5664C10.2614 42.5664 7.3916 41.4808 5.18262 39.3096C2.99251 37.1195 1.89746 34.2497 1.89746 30.7002H9.91211C9.91211 32.1729 10.2992 33.4095 11.0732 34.4102C11.8473 35.4108 12.8291 35.9111 14.0186 35.9111C15.3968 35.9111 16.4824 35.4014 17.2754 34.3818C18.0872 33.3623 18.4932 32.0029 18.4932 30.3037C18.4932 26.2445 16.9167 24.2054 13.7637 24.1865H9.82715V17.7295ZM32.8516 21.7227L34.8906 0.765625H54.8564V7.61914H41.4609L40.7246 16.4551C42.2728 15.4167 43.8682 14.8975 45.5107 14.8975C48.9092 14.8975 51.5241 16.1058 53.3555 18.5225C55.2057 20.9391 56.1309 24.3564 56.1309 28.7744C56.1309 32.9092 55.0358 36.2415 52.8457 38.7715C50.6556 41.3014 47.7292 42.5664 44.0664 42.5664C41.8952 42.5664 39.8844 42.0566 38.0342 41.0371C36.1839 39.9987 34.7207 38.5638 33.6445 36.7324C32.5872 34.901 32.0492 32.8242 32.0303 30.502H39.96C40.0921 32.2201 40.5169 33.5511 41.2344 34.4951C41.9518 35.4391 42.877 35.9111 44.0098 35.9111C45.3314 35.9111 46.3509 35.2786 47.0684 34.0137C47.7858 32.7298 48.1445 30.8229 48.1445 28.293C48.1445 25.9141 47.7103 24.1204 46.8418 22.9121C45.9922 21.7038 44.7933 21.0996 43.2451 21.0996C41.7347 21.0996 40.5641 21.6188 39.7334 22.6572L39.2236 23.3652L32.8516 21.7227ZM85.3291 24.9512C85.3291 30.653 84.2907 35.0143 82.2139 38.0352C80.1559 41.056 77.2106 42.5664 73.3779 42.5664C69.583 42.5664 66.6471 41.1032 64.5703 38.1768C62.5124 35.2314 61.4456 31.0212 61.3701 25.5459V17.7578C61.3701 12.0749 62.3991 7.73242 64.457 4.73047C66.515 1.70964 69.4697 0.199219 73.3213 0.199219C77.1729 0.199219 80.1276 1.69076 82.1855 4.67383C84.2435 7.6569 85.2913 11.9144 85.3291 17.4463V24.9512ZM77.2861 16.5967C77.2861 13.3493 76.9652 10.9137 76.3232 9.29004C75.6813 7.66634 74.6807 6.85449 73.3213 6.85449C70.7725 6.85449 69.4508 9.82812 69.3564 15.7754V26.0557C69.3564 29.3786 69.6774 31.8519 70.3193 33.4756C70.9801 35.0993 71.9997 35.9111 73.3779 35.9111C74.6807 35.9111 75.6436 35.1559 76.2666 33.6455C76.9085 32.1162 77.2484 29.7845 77.2861 26.6504V16.5967Z" fill="url(#paint0_linear)"/>
<path d="M4.53223 60.3252L6.51465 54.6035H8.01855V62H6.81543V56.9004L4.94922 62H4.12207L2.21484 56.7773V62H1.01172V54.6035H2.57031L4.53223 60.3252ZM12.5986 62.1367C11.6781 62.1367 10.9717 61.8633 10.4795 61.3164C9.9873 60.765 9.73665 59.9583 9.72754 58.8965V58.001C9.72754 56.8981 9.9668 56.0345 10.4453 55.4102C10.9284 54.7812 11.6006 54.4668 12.4619 54.4668C13.3278 54.4668 13.9749 54.7425 14.4033 55.2939C14.8317 55.8454 15.0505 56.7044 15.0596 57.8711V58.6641H10.9307V58.835C10.9307 59.6279 11.0788 60.2044 11.375 60.5645C11.6758 60.9245 12.1064 61.1045 12.667 61.1045C13.0225 61.1045 13.3346 61.0384 13.6035 60.9062C13.877 60.7695 14.1322 60.5553 14.3691 60.2637L14.998 61.0293C14.474 61.7676 13.6742 62.1367 12.5986 62.1367ZM12.4619 55.5059C11.9606 55.5059 11.5892 55.679 11.3477 56.0254C11.1061 56.3672 10.9694 56.9004 10.9375 57.625H13.8496V57.4609C13.8177 56.7591 13.6901 56.2578 13.4668 55.957C13.248 55.6562 12.9131 55.5059 12.4619 55.5059ZM19.0859 61.1045C19.487 61.1045 19.8083 60.9814 20.0498 60.7354C20.2913 60.4847 20.4235 60.1292 20.4463 59.6689H21.5879C21.5605 60.3799 21.3076 60.9701 20.8291 61.4395C20.3551 61.9043 19.7741 62.1367 19.0859 62.1367C18.1699 62.1367 17.4704 61.8496 16.9873 61.2754C16.5088 60.6966 16.2695 59.8376 16.2695 58.6982V57.8848C16.2695 56.7682 16.5088 55.9206 16.9873 55.3418C17.4658 54.7585 18.1631 54.4668 19.0791 54.4668C19.8356 54.4668 20.4349 54.7061 20.877 55.1846C21.3236 55.6631 21.5605 56.3171 21.5879 57.1465H20.4463C20.4189 56.5996 20.2868 56.1895 20.0498 55.916C19.8174 55.6426 19.4938 55.5059 19.0791 55.5059C18.5413 55.5059 18.1426 55.6836 17.8828 56.0391C17.623 56.39 17.4886 56.9688 17.4795 57.7754V58.7188C17.4795 59.5892 17.6071 60.2044 17.8623 60.5645C18.1221 60.9245 18.5299 61.1045 19.0859 61.1045ZM27.6582 55.6289H25.6416V62H24.4385V55.6289H22.4492V54.6035H27.6582V55.6289Z" fill="#2E35AC"/>
<defs>
<linearGradient id="paint0_linear" x1="0" y1="2" x2="19.0219" y2="57.1711" gradientUnits="userSpaceOnUse">
<stop stop-color="#D10A42"/>
<stop offset="1" stop-color="#0041CA"/>
</linearGradient>
</defs>
</svg>

<svg width="89" height="63" fill="none" xmlns="http://www.w3.org/2000/svg"><path d="M9.827 17.73h3.88c1.473 0 2.549-.51 3.229-1.53.698-1.038 1.047-2.416 1.047-4.135 0-1.642-.358-2.917-1.076-3.823-.698-.925-1.642-1.388-2.832-1.388-1.114 0-2.03.435-2.747 1.303-.698.869-1.048 1.964-1.048 3.285H2.266c0-2.152.49-4.078 1.472-5.777 1-1.718 2.389-3.059 4.163-4.021C9.695.68 11.677.199 13.85.199c3.795 0 6.768 1.048 8.92 3.144 2.153 2.095 3.229 4.965 3.229 8.61 0 1.868-.49 3.605-1.473 5.21-.962 1.586-2.237 2.804-3.823 3.653 1.945.831 3.39 2.077 4.333 3.739.963 1.661 1.445 3.625 1.445 5.89 0 3.663-1.171 6.599-3.512 8.808-2.323 2.209-5.381 3.313-9.176 3.313-3.53 0-6.4-1.085-8.61-3.256-2.19-2.19-3.285-5.06-3.285-8.61h8.015c0 1.473.387 2.71 1.161 3.71s1.756 1.501 2.946 1.501c1.378 0 2.463-.51 3.256-1.53.812-1.019 1.218-2.378 1.218-4.077 0-4.06-1.576-6.099-4.73-6.117H9.828V17.73zm23.025 3.993L34.89.766h19.965v6.853H41.461l-.736 8.836c1.548-1.038 3.143-1.557 4.786-1.557 3.398 0 6.013 1.208 7.844 3.625 1.85 2.416 2.776 5.833 2.776 10.251 0 4.135-1.095 7.468-3.285 9.998-2.19 2.53-5.117 3.794-8.78 3.794-2.17 0-4.182-.51-6.032-1.529a11.578 11.578 0 01-4.39-4.305c-1.057-1.831-1.595-3.908-1.614-6.23h7.93c.132 1.718.557 3.05 1.274 3.993.718.944 1.643 1.416 2.776 1.416 1.321 0 2.34-.632 3.058-1.897.718-1.284 1.077-3.191 1.077-5.721 0-2.379-.435-4.173-1.303-5.38-.85-1.21-2.049-1.813-3.597-1.813-1.51 0-2.68.519-3.512 1.557l-.51.708-6.371-1.642zm52.477 3.228c0 5.702-1.038 10.063-3.115 13.084-2.058 3.021-5.003 4.531-8.836 4.531-3.795 0-6.73-1.463-8.808-4.39-2.058-2.945-3.124-7.155-3.2-12.63v-7.788c0-5.683 1.03-10.026 3.087-13.028C66.515 1.71 69.47.2 73.321.2c3.852 0 6.807 1.49 8.865 4.474 2.057 2.983 3.105 7.24 3.143 12.772v7.505zm-8.043-8.354c0-3.248-.32-5.683-.963-7.307-.642-1.624-1.642-2.436-3.002-2.436-2.549 0-3.87 2.974-3.965 8.921v10.28c0 3.324.321 5.797.963 7.42.661 1.624 1.68 2.436 3.059 2.436 1.303 0 2.266-.755 2.889-2.266.642-1.529.981-3.86 1.02-6.995V16.597z" fill="url(#paint0_linear)"/><path d="M4.532 60.325l1.983-5.722h1.504V62H6.815v-5.1L4.95 62h-.827l-1.907-5.223V62H1.012v-7.397H2.57l1.962 5.722zm8.067 1.812c-.92 0-1.627-.274-2.12-.82-.492-.552-.742-1.359-.751-2.42V58c0-1.103.239-1.966.717-2.59.483-.63 1.156-.944 2.017-.944.866 0 1.513.276 1.941.827.429.551.647 1.41.657 2.577v.793h-4.13v.171c0 .793.149 1.37.445 1.73.3.36.731.54 1.292.54.356 0 .668-.067.937-.199a2.35 2.35 0 00.765-.642l.629.765c-.524.739-1.324 1.108-2.4 1.108zm-.137-6.631c-.501 0-.873.173-1.114.52-.242.341-.379.874-.41 1.599h2.912v-.164c-.032-.702-.16-1.203-.383-1.504-.219-.3-.554-.451-1.005-.451zm6.624 5.599c.401 0 .722-.124.964-.37.241-.25.373-.606.396-1.066h1.142c-.027.71-.28 1.301-.759 1.77-.474.465-1.055.698-1.743.698-.916 0-1.616-.287-2.099-.862-.478-.578-.717-1.437-.717-2.577v-.813c0-1.117.239-1.964.717-2.543.479-.584 1.176-.875 2.092-.875.757 0 1.356.24 1.798.718.447.478.684 1.132.71 1.962h-1.14c-.028-.547-.16-.957-.397-1.231-.233-.273-.556-.41-.97-.41-.539 0-.937.178-1.197.533-.26.351-.394.93-.403 1.736v.944c0 .87.127 1.485.382 1.846.26.36.668.54 1.224.54zm8.572-5.476h-2.016V62h-1.203v-6.371h-1.99v-1.026h5.21v1.026z" fill="#2E35AC"/><defs><linearGradient id="paint0_linear" x1="0" y1="2" x2="19.022" y2="57.171" gradientUnits="userSpaceOnUse"><stop stop-color="#D10A42"/><stop offset="1" stop-color="#0041CA"/></linearGradient></defs></svg>
